assets/icons/qvision/forward_30.svg

<svg xmlns="http://www.w3.org/2000/svg" enable-background="new 0 0 24 24" height="24" viewBox="0 0 24 24" width="24"><g><rect fill="none" height="24" width="24"/></g><g><g><path d="M18,13c0,3.31-2.69,6-6,6s-6-2.69-6-6s2.69-6,6-6v4l5-5l-5-5v4c-4.42,0-8,3.58-8,8c0,4.42,3.58,8,8,8s8-3.58,8-8H18z"/><path d="M10.06,15.38c-0.29,0-0.62-0.17-0.62-0.54H8.59c0,0.97,0.9,1.23,1.45,1.23c0.87,0,1.51-0.46,1.51-1.25 c0-0.66-0.45-0.9-0.71-1c0.11-0.05,0.65-0.32,0.65-0.92c0-0.21-0.05-1.22-1.44-1.22c-0.62,0-1.4,0.35-1.4,1.16h0.85 c0-0.34,0.31-0.48,0.57-0.48c0.59,0,0.58,0.5,0.58,0.54c0,0.52-0.41,0.59-0.63,0.59H9.56v0.66h0.45c0.65,0,0.7,0.42,0.7,0.64 C10.71,15.11,10.5,15.38,10.06,15.38z"/><path d="M13.85,11.68c-0.14,0-1.44-0.08-1.44,1.82v0.74c0,1.9,1.31,1.82,1.44,1.82c0.14,0,1.44,0.09,1.44-1.82V13.5 C15.3,11.59,13.99,11.68,13.85,11.68z M14.45,14.35c0,0.77-0.21,1.03-0.59,1.03c-0.38,0-0.6-0.26-0.6-1.03v-0.97 c0-0.75,0.22-1.01,0.59-1.01c0.38,0,0.6,0.26,0.6,1.01V14.35z"/></g></g></svg>

<svg width="24" height="24" viewBox="0 0 24 24" fill="none" xmlns="http://www.w3.org/2000/svg">
<g clip-path="url(#clip0_147_1458)">
<path d="M18 13C18 16.31 15.31 19 12 19C8.69 19 6 16.31 6 13C6 9.69 8.69 7 12 7V11L17 6L12 1V5C7.58 5 4 8.58 4 13C4 17.42 7.58 21 12 21C16.42 21 20 17.42 20 13H18Z" fill="#323232"/>
<path d="M10.06 15.38C9.77003 15.38 9.44003 15.21 9.44003 14.84H8.59003C8.59003 15.81 9.49003 16.07 10.04 16.07C10.91 16.07 11.55 15.61 11.55 14.82C11.55 14.16 11.1 13.92 10.84 13.82C10.95 13.77 11.49 13.5 11.49 12.9C11.49 12.69 11.44 11.68 10.05 11.68C9.43003 11.68 8.65003 12.03 8.65003 12.84H9.50003C9.50003 12.5 9.81003 12.36 10.07 12.36C10.66 12.36 10.65 12.86 10.65 12.9C10.65 13.42 10.24 13.49 10.02 13.49H9.56003V14.15H10.01C10.66 14.15 10.71 14.57 10.71 14.79C10.71 15.11 10.5 15.38 10.06 15.38Z" fill="#323232"/>
<path d="M13.85 11.68C13.71 11.68 12.41 11.6 12.41 13.5V14.24C12.41 16.14 13.72 16.06 13.85 16.06C13.99 16.06 15.29 16.15 15.29 14.24V13.5C15.3 11.59 13.99 11.68 13.85 11.68ZM14.45 14.35C14.45 15.12 14.24 15.38 13.86 15.38C13.48 15.38 13.26 15.12 13.26 14.35V13.38C13.26 12.63 13.48 12.37 13.85 12.37C14.23 12.37 14.45 12.63 14.45 13.38V14.35Z" fill="#323232"/>
</g>
<defs>
<clipPath id="clip0_147_1458">
<rect width="24" height="24" fill="white"/>
</clipPath>
</defs>
</svg>
